X: 9
M: 2/4
L: 1/8
K: G
g | d G G G | d G B G |
d G G G | d2 B d | c A A A |
c A B A | Tc A A A | d2 B ::
d g g a | g e d g |
f a e g | f a e g |
f a e g | f a e f |
g> a b f | g2 f |]

